!!!COM: Mozart, Wolfgang Amadeus
!!!OTL: Quartet No. 4 in A Major for flute, violin, viola and cello
!!!OMD: Rondo: Allegretto grazioso
!!!OMV: 3
!!!SCT1: K<sup>1</sup> 298
!!!SCA: Chronologisch-thematisches Verzeichnis sämtlicher Tonwerke Wolfgang Amade Mozarts (L. von Köchel; 1862, 2/1905, 3/1937, 1947)
!!!SCT2: K<sup>6</sup> 298
!!!YOR: Breitkopf & Härtel Edition
!!!ENC: Frances Bennion
!!!CDT: 1756/1/27/-1791/12/5/
!!!OCY: Österreich
!!!YEC: Copyright (c) 1994, 2000 Center for Computer Assisted Research in the Humanities
!!!YEM: Rights to all derivative editions reserved.
!!!YEM: Refer to licensing agreement for further details.
!!!YEN: United States of America
**kern	**kern	**kern	**kern
*k[f#c#g#]	*k[f#c#g#]	*k[f#c#g#]	*k[f#c#g#]
*A:	*A:	*A:	*A:
*clefC	*clefF	*clefG	*clefG
*M2/4	*M2/4	*M2/4	*M2/4
4r	4r	4r	4r
4r	4r	8c#	8a
.	.	8B	8g#
=1	=1	=1	=1
4AA	4E	8c#	8a
.	.	8r	8e
4r	4r	8a	8cc#
.	.	8g#	8b
=2	=2	=2	=2
4A	4e	8a	8cc#
.	.	8r	8a
4r	4r	8cc#	8ee
.	.	8b#	8dd#
=3	=3	=3	=3
4A	8r	8cc#	8ee
.	8e	8e	8cc#
4AA	8e	8d	8b
.	8e	8c#	8a
=4	=4	=4	=4
4E	4e	8c#	8a
.	.	8B	8g#
4r	4r	4r	8b
.	.	.	8a#
=5	=5	=5	=5
2GG#	[2e	2B	8b
.	.	.	8e
.	.	.	8dd#
.	.	.	8ee
=6	=6	=6	=6
8AA	8e]	8A	8cc#
4.r	4.r	4.r	8r
.	.	.	8b
.	.	.	8a#
=7	=7	=7	=7
2GG#	[2e	2B	8b
.	.	.	8e
.	.	.	8dd#
.	.	.	8ee
=8	=8	=8	=8
8AA	8e]	8A	8cc#
8r	8r	8r	8r
4C#	4A	8e	8gg#
.	.	8e	8aa
=9	=9	=9	=9
2D	[2a	8e	8gg#
.	.	8d	8ff#
.	.	8f#	8aa
.	.	8d	8ff#
=10	=10	=10	=10
4.AA	2a_	8d	8ff#
.	.	8c#	8ee
.	.	8cc#	8aa
8C#	.	8cc#	8ee
=11	=11	=11	=11
8E	8a]	8cc#	8ee
8E	4e	8b	8dd
8E	.	8a	8cc#
8E	8e 8d	8g#	8b
=12	=12	=12	=12
4AA	4e 4c#	4a	4a
4A	4r	4r	4r
=13	=13	=13	=13
2r	8A	4cc#	2r
.	8e	.	.
.	8B	8dd	.
.	8e	16cc#	.
.	.	16dd	.
=14	=14	=14	=14
2AA	8c#	8ee	2r
.	8e	8cc#	.
.	8c#	8b	.
.	8e	8a	.
=15	=15	=15	=15
2BB	8d	8a	2r
.	8e	8g#	.
.	8d	8f#	.
.	8e	8g#	.
=16	=16	=16	=16
4AA	8c#	4a	2r
.	8e	.	.
4r	8c#	8e	.
.	8e	8r	.
=17	=17	=17	=17
2r	8A	4cc#	4ccc#
.	8e	.	.
.	8B	8dd	8ddd
.	8e	16cc#	16ccc#
.	.	16dd	16ddd
=18	=18	=18	=18
2AA	8c#	8ee	8eee
.	8e	8cc#	8ccc#
.	8c#	8b	8bb
.	8e	8a	8aa
=19	=19	=19	=19
2BB	8d	8a	8aa
.	8e	8g#	8gg#
.	8d	8f#	8ff#
.	8e	8g#	8gg#
=20	=20	=20	=20
4AA	4c#	4a	4aa
4A	4r	4r	4r
=21	=21	=21	=21
2r	8c#	8.a	2r
.	8r	.	.
.	.	16g#	.
.	8e	8.b	.
.	8r	.	.
.	.	16a	.
=22	=22	=22	=22
2r	8a	8.cc#	2r
.	8r	.	.
.	.	16b	.
.	8b	8.dd	.
.	8r	.	.
.	.	16cc#	.
=23	=23	=23	=23
2r	8cc#	8.ee	2r
.	8r	.	.
.	.	16dd	.
.	8dd	8.ff#	.
.	8r	.	.
.	.	16ee	.
=24	=24	=24	=24
2BB	8r	2dd#	2ddd#
.	8a 8f#	.	.
.	8a 8f#	.	.
.	8a 8f#	.	.
=25	=25	=25	=25
2E	8r	2dd	2ddd
.	8g# 8B	.	.
.	8g# 8B	.	.
.	8g# 8B	.	.
=26	=26	=26	=26
4AA	8a	4cc#	4ccc#
.	8e	.	.
4D	8f#	8dd	8ddd
.	8d	16cc#	16ccc#
.	.	16b	16bb
=27	=27	=27	=27
4E	8c#	4a	4aa
.	8e	.	.
4EE	8d	4g#	4gg#
.	8B	.	.
=28	=28	=28	=28
4AA	4c#	4a	4aa
4r	4r	4r	8ee
.	.	.	8cc#
=29	=29	=29	=29
8r	8r	8r	8a
8A	8a	8ee	8ccc#
8A	8a	8ee	8ccc#
8A	8a	8ee	8ccc#
=30	=30	=30	=30
4G#	4e	4ee	8ccc#
.	.	.	8bb
4r	4r	4r	8gg#
.	.	.	8ee
=31	=31	=31	=31
8r	8r	8r	8b
8F#	8b	8dd#	8aa
8F#	8b	8dd#	8aa
8F#	8b	8dd#	8aa
=32	=32	=32	=32
4E	[2b	8dd#	8aa
.	.	8ee	8gg#
4r	.	4r	8bb
.	.	.	8gg#
=33	=33	=33	=33
4A	2b_	4dd#	8ee#
.	.	.	8ff#
8G#	.	4ee	8bb
8E	.	.	8gg#
=34	=34	=34	=34
4A	2b]	4dd#	8ee#
.	.	.	8ff#
8G#	.	4ee	8bb
8E	.	.	8gg#
=35	=35	=35	=35
8A	2cc#	[2ee	4ff#
8A	.	.	.
8A	.	.	[4gg
8A	.	.	.
=36	=36	=36	=36
8A#	4.c#	4.ee]	8gg]
8A#	.	.	16ff#
.	.	.	16gg
8A#	.	.	8gg
8A#	8g	8cc#	16ff#
.	.	.	16ee
=37	=37	=37	=37
8B	8f#	8b	4dd#
8BB	8B	8B	.
8C#	8c#	8c#	4r
8D#	8d#	8d#	.
=38	=38	=38	=38
8E	8e	8e	2r
8F#	8f#	8f#	.
8G#	8g#	8g#	.
8A#	8a#	8a#	.
=39	=39	=39	=39
4B	4b	4b	8r
.	.	.	8b
4r	4r	4r	8cc#
.	.	.	8dd#
=40	=40	=40	=40
2r	2r	2r	16ee
.	.	.	16dd#
.	.	.	16ee
.	.	.	16ff#
.	.	.	16gg#
.	.	.	16ff#
.	.	.	16gg#
.	.	.	16aa
=41	=41	=41	=41
2r	4r	4r	[2bb
.	8G#	8e	.
.	8F#	8d#	.
=42	=42	=42	=42
4E	8G#	8e	2bb_
.	8r	8B	.
4r	8e	8g#	.
.	8d#	8f#	.
=43	=43	=43	=43
4E	8e	8g#	2bb_
.	8r	8e	.
4r	8g#	8b	.
.	8f##	8a#	.
=44	=44	=44	=44
4E	8g#	8b	2bb_
.	8B	8g#	.
4EE	8A	8f#	.
.	8G#	8e	.
=45	=45	=45	=45
4BB	8G#	8e	8bb]
.	8F#	8d#	8r
4r	4r	8f#	8dd#
.	.	8e	8cc#
=46	=46	=46	=46
4BB	4B	8f#	8dd#
.	.	8r	8b
4r	4r	8dd#	8ff#
.	.	8cc#	8ee
=47	=47	=47	=47
4B	4a	8dd#	8ff#
.	.	8r	8dd#
4r	4r	8ff#	8aa
.	.	8ee#	8gg#
=48	=48	=48	=48
8B	4.d#	8ff#	8aa
8B	.	8aa	8ccc#
8B	.	8gg#	8bb
8B	8dd#	8ff#	8aa
=49	=49	=49	=49
8e	8dd#	8ff#	8aa
8r	8ee	8ee	8gg#
8E	4r	4r	4r
8D#	.	.	.
=50	=50	=50	=50
8E	2e	2b	2gg#
8BB	.	.	.
8G#	.	.	.
8F#	.	.	.
=51	=51	=51	=51
8G#	2g#	[2ee	2bb
8E	.	.	.
8B	.	.	.
8A#	.	.	.
=52	=52	=52	=52
8B	8g#	4ee]	4ddd
8G#	8b	.	.
8E	8g#	4b	4dd
8G#	8e	.	.
=53	=53	=53	=53
8A	8e	8a	4cc#
8A	8e	8a	.
8A	8e	8a	[4ccc#
8A	8e	8a	.
=54	=54	=54	=54
8A	8e	8a	8ccc#]
8A	8e	8cc#	8eee
8A	8e	8b	8ddd#
8A	8e	8a	8ccc#
=55	=55	=55	=55
8E	8e	8g#	8bb
8E	8e	8g#	16aa
.	.	.	16bb
8AA	8e	8a	8ccc#
8AA	8c#	8f#	16bb
.	.	.	16aa
=56	=56	=56	=56
8BB	8B	8e	4gg#
8BB	8B	8e	.
8BB	8A	8d#	4ff#
8BB	8A	8d#	.
=57	=57	=57	=57
8EE	[2G#	8e	4ee
8E	.	8r	.
8E	.	8e	4r
8E	.	8d#	.
=58	=58	=58	=58
8E	8G#]	8e	8r
8E	8g#	8B	8bb
8E	8b	4r	8gg#
8E	8g#	.	8ee
=59	=59	=59	=59
8E	4a	4r	8gg#
8E	.	.	8ff#
8E	[4A	8d#	4r
8E	.	8c#	.
=60	=60	=60	=60
8E	8A]	8d#	8r
8E	8a	8B	8ccc#
8E	8f#	4r	8aa
8E	8d#	.	8ff#
=61	=61	=61	=61
8E	4b	4dd	8aa
8E	.	.	8gg#
8E	4a	4cc#	8bb
8E	.	.	8aa
=62	=62	=62	=62
8E	4d	4g#	8ccc#
8E	.	.	8bb
8E	4c#	4a	8ddd
8E	.	.	8ccc#
=63	=63	=63	=63
2EE	2G#	2b	4eee
.	.	.	8ddd
.	.	.	8r
=64	=64	=64	=64
2r	2r	4r	4r
.	.	8c#	8a
.	.	8B	8g#
=65	=65	=65	=65
4AA	4E	8c#	8a
.	.	8r	8e
4r	4r	8a	8cc#
.	.	8g#	8b
=66	=66	=66	=66
4A	4e	8a	8cc#
.	.	8r	8a
4r	4r	8cc#	8ee
.	.	8b#	8dd#
=67	=67	=67	=67
4A	8r	8cc#	8ee
.	8e	8e	8cc#
4AA	8e	8d	8b
.	8e	8c#	8a
=68	=68	=68	=68
4E	4e	8c#	8a
.	.	8B	8g#
4r	4r	4r	8b
.	.	.	8a#
=69	=69	=69	=69
2GG#	[2e	2B	8b
.	.	.	8e
.	.	.	8dd#
.	.	.	8ee
=70	=70	=70	=70
8AA	8e]	8A	8cc#
4.r	4.r	4.r	8r
.	.	.	8b
.	.	.	8a#
=71	=71	=71	=71
2GG#	[2e	2B	8b
.	.	.	8e
.	.	.	8dd#
.	.	.	8ee
=72	=72	=72	=72
8AA	8e]	8A	8cc#
8r	8r	8r	8r
4C#	4A	8e	8gg#
.	.	8e	8aa
=73	=73	=73	=73
2D	[2a	8e	8gg#
.	.	8d	8ff#
.	.	8f#	8aa
.	.	8d	[8ff#
=74	=74	=74	=74
4.AA	2a_	8d	8ff#]
.	.	8c#	8ee
.	.	8cc#	8aa
8C#	.	8cc#	[8ee
=75	=75	=75	=75
8E	8a]	8cc#	8ee]
8E	4e	8b	8dd
8E	.	8a	8cc#
8E	8e 8d	8g#	8b
=76	=76	=76	=76
4AA	4e 4c#	4a	4a
4r	8A	4r	4r
.	8G#	.	.
=77	=77	=77	=77
4r	8A	2r	2r
.	8E	.	.
8AA	8c#	.	.
8GG#	8B	.	.
=78	=78	=78	=78
8AA	8c#	2r	2r
8EE	8A	.	.
8C#	8e	.	.
8BB#	8d#	.	.
=79	=79	=79	=79
8C#	8e	[2gg 2a	2r
8AA	8c#	.	.
8E	8g	.	.
8D#	8f#	.	.
=80	=80	=80	=80
8E	8g	2gg 2a]	4.ccc#
8C#	8e	.	.
8AA	8c#	.	.
8A	8e	.	16bb
.	.	.	16ccc#
=81	=81	=81	=81
4D	8d	4ff# 4a	4ddd
.	8A	.	.
4r	8d	4r	4r
.	8A	.	.
=82	=82	=82	=82
2r	8d	4ff#	2r
.	8A	.	.
.	8e	8gg	.
.	8A	16ff#	.
.	.	16gg	.
=83	=83	=83	=83
2D	8f#	8aa	2r
.	8A	8ff#	.
.	8f#	8ee	.
.	8A	8dd	.
=84	=84	=84	=84
2E	8g	8dd	2r
.	8A	8cc#	.
.	8g	8b	.
.	8A	8cc#	.
=85	=85	=85	=85
4D	8f#	8cc#	2r
.	8A	8dd	.
4r	8f#	8a	.
.	8A	8r	.
=86	=86	=86	=86
2r	8D	4f#	4ff#
.	8A	.	.
.	8E	8g	8gg
.	8A	16f#	16ff#
.	.	16g	16gg
=87	=87	=87	=87
2DD	8F#	8a	8aa
.	8A	8f#	8ff#
.	8F#	8e	8ee
.	8A	8d	8dd
=88	=88	=88	=88
2EE	8G	8d	8dd
.	8A	8c#	8cc#
.	8G	8B	8b
.	8A	8c#	8cc#
=89	=89	=89	=89
4DD	8F#	8c#	8cc#
.	8A	8d	8dd
4r	8F#	8A	8a
.	8A	8r	8r
=90	=90	=90	=90
2r	8F#	8.d	8.dd
.	8r	.	.
.	.	16c#	16cc#
.	8A	8.e	8.ee
.	8r	.	.
.	.	16d	16dd
=91	=91	=91	=91
2r	8d	8.f#	8.ff#
.	8r	.	.
.	.	16e	16ee
.	8e	8.g	8.gg
.	8r	.	.
.	.	16f#	16ff#
=92	=92	=92	=92
2r	8f#	8.a	8.aa
.	8r	.	.
.	.	16g	16gg
.	8g	8.b	8.bb
.	8r	.	.
.	.	16a	16aa
=93	=93	=93	=93
2EE	8r	2g#	2gg#
.	8d 8B	.	.
.	8d 8B	.	.
.	8d 8B	.	.
=94	=94	=94	=94
2AA	8r	2g	2gg
.	8e 8c#	.	.
.	8e 8c#	.	.
.	8e 8c#	.	.
=95	=95	=95	=95
4D	8d	4f#	4ff#
.	8A	.	.
4GG	8B	8g	8gg
.	8G	16f#	16ff#
.	.	16e	16ee
=96	=96	=96	=96
4AA	8F#	4d	4dd
.	8A	.	.
4AA	8G	4c#	4cc#
.	8E	.	.
=97	=97	=97	=97
4DD	4F#	4d	4dd
4r	4r	4r	8a
.	.	.	8f#
=98	=98	=98	=98
8r	8r	8r	8d
8D	8d	8a	8ff#
8D	8d	8a	8ff#
8D	8d	8a	8ff#
=99	=99	=99	=99
4C#	4A	4a	8ff#
.	.	.	8ee
4r	4r	4r	8cc#
.	.	.	8a
=100	=100	=100	=100
8r	8r	8r	8e
8BB	8g#	8ee	8ddd
8B	8g#	8ee	8ddd
8B	8g#	8ee	8ddd
=101	=101	=101	=101
4A	4a	4ee	8ddd
.	.	.	8ccc#
4r	4r	8cc#	8eee
.	.	8a	8ccc#
=102	=102	=102	=102
4d	[2e	4g#	8aa#
.	.	.	8bb
8c#	.	4a	8eee
8A	.	.	8ccc#
=103	=103	=103	=103
4d	2e]	4g#	8aa#
.	.	.	8bb
8c#	.	[4a	8eee
8A	.	.	8ccc#
=104	=104	=104	=104
8d	8f	8a]	4bb
8D	8f	8a	.
8D	8f	8a	[4ccc
8D	8f	8a	.
=105	=105	=105	=105
8D#	8f#	8a	8ccc]
8D#	4F#	8a	16bb
.	.	.	16ccc
8D#	.	8a	8ccc
8D#	8c	8f#	16bb
.	.	.	16aa
=106	=106	=106	=106
8E	8B	8e	4gg#
8EE	8E	8e	.
8FF#	8F#	8f#	4r
8GG#	8G#	8g#	.
=107	=107	=107	=107
8AA	8A	8a	2r
8BB	8B	8b	.
8C#	8c#	8cc#	.
8D#	8d#	8dd#	.
=108	=108	=108	=108
4E	4e	4ee	8r
.	.	.	8ee
4r	4r	4r	8ff#
.	.	.	8gg#
=109	=109	=109	=109
2r	2r	2r	16aa
.	.	.	16gg#
.	.	.	16aa
.	.	.	16bb
.	.	.	16ccc#
.	.	.	16bb
.	.	.	16ccc#
.	.	.	16ddd
=110	=110	=110	=110
2r	4r	4r	[2eee
.	8c#	8a	.
.	8B	8g#	.
=111	=111	=111	=111
4A	8c#	8a	2eee_
.	8r	8e	.
4r	8a	8cc#	.
.	8g#	8b	.
=112	=112	=112	=112
4A	8a	8cc#	2eee_
.	8r	8a	.
4r	8cc#	8ee	.
.	8b#	8dd#	.
=113	=113	=113	=113
4A	8cc#	8ee	2eee_
.	8e	8cc#	.
4AA	8d	8b	.
.	8c#	8a	.
=114	=114	=114	=114
4E	8c#	8a	8eee]
.	8B	8g#	8r
4r	4r	8b	8gg#
.	.	8a	8ff#
=115	=115	=115	=115
4E	4e	8b	8gg#
.	.	8r	8ee
4r	4r	8dd	8bb
.	.	8cc#	8aa
=116	=116	=116	=116
4E	4g#	8dd	8bb
.	.	8r	8gg#
4r	4r	8b	8ddd
.	.	8a#	8ccc#
=117	=117	=117	=117
8e	[2g#	8b	8ddd
8e	.	8dd	8fff#
8e	.	8cc#	8eee
8e	.	8b	8ddd
=118	=118	=118	=118
8A	8g#]	8b	8ddd
8r	8a	8a	8ccc#
8AA	4r	4r	4r
8GG#	.	.	.
=119	=119	=119	=119
8AA	2a	2ee	2ccc#
8EE	.	.	.
8C#	.	.	.
8BB	.	.	.
=120	=120	=120	=120
8C#	[2cc#	[2aa	2eee
8AA	.	.	.
8E	.	.	.
8D#	.	.	.
=121	=121	=121	=121
8E	8cc#]	4aa]	4ggg
8C#	8ee	.	.
8AA	8cc#	4ee	4gg
8C#	8a	.	.
=122	=122	=122	=122
8D	8a	8dd	4ff#
8D	8a	8dd	.
8D	8a	8dd	[4fff#
8D	8a	8dd	.
=123	=123	=123	=123
8D	8g#	8b	4fff#]
8D	8g#	8b	.
8D	8g#	8b	8ddd
8D	8g#	8b	16ccc#
.	.	.	16bb
=124	=124	=124	=124
8C#	8a	8cc#	16ddd#
.	.	.	16eee
8C#	8a	8cc#	16ddd#
.	.	.	16eee
8F#	8c#	8a	8ccc#
8F#	8c#	8a	16bb
.	.	.	16aa
=125	=125	=125	=125
8D	8f#	8a	2bb
8D	8f#	8a	.
8E	8e	8g#	.
8E	8d	8g#	.
=126	=126	=126	=126
8AA	8c#	4a	4aa
8AA	8r	.	.
8AA	8A	4r	4r
8AA	8G#	.	.
=127	=127	=127	=127
8AA	8A	8r	8r
8AA	8E	8c#	8ee
8AA	4r	8e	8cc#
8AA	.	8c#	8a
=128	=128	=128	=128
8AA	4r	8e	8cc#
8AA	.	8d	8b
8AA	8G#	4r	4r
8AA	8F#	.	.
=129	=129	=129	=129
8AA	8G#	8r	8r
8AA	8E	8dd	8ff#
8AA	4r	8b	8dd
8AA	.	8g#	8b
=130	=130	=130	=130
8AA	4e	4g	8dd
8AA	.	.	8cc#
8AA	4d	4f#	8ee
8AA	.	.	8dd
=131	=131	=131	=131
8AA	4G	4c#	8ff#
8AA	.	.	8ee
8AA	4F#	4d	8gg
8AA	.	.	8ff#
=132	=132	=132	=132
2AA	2C#	2e	4aa
.	.	.	8gg
.	.	.	8r
=133	=133	=133	=133
2r	2r	4r	2r
.	.	8b	.
.	.	8a#	.
=134	=134	=134	=134
4D	4.f#	8b	[2ff#
.	.	8f#	.
4C#	.	8dd	.
.	8e	8cc#	.
=135	=135	=135	=135
4BB	4d	8dd	8ff#]
.	.	8b	8bb
4AA	4B	8ff#	8ddd
.	.	8dd	8fff#
=136	=136	=136	=136
[2GG#	[2E	[2d 2B	4.eee
.	.	.	8ddd#
=137	=137	=137	=137
4GG#]	4E]	4d 4B]	4ddd
4r	4r	4r	4r
=138	=138	=138	=138
2r	2r	4r	4r
.	.	8c#	8a
.	.	8B	8g#
=139	=139	=139	=139
4AA	4E	8c#	8a
.	.	8r	8e
4r	4r	8a	8cc#
.	.	8g#	8b
=140	=140	=140	=140
4A	4e	8a	8cc#
.	.	8r	8a
4r	4r	8cc#	8ee
.	.	8b#	8dd#
=141	=141	=141	=141
4A	8r	8cc#	8ee
.	8e	8e	8cc#
4AA	8e	8d	8b
.	8e	8c#	8a
=142	=142	=142	=142
4E	4e	8c#	8a
.	.	8B	8g#
4r	4r	4r	8b
.	.	.	8a#
=143	=143	=143	=143
2GG#	[2e	2B	8b
.	.	.	8e
.	.	.	8dd#
.	.	.	8ee
=144	=144	=144	=144
8AA	8e]	8A	8cc#
4.r	4.r	4.r	8r
.	.	.	8b
.	.	.	8a#
=145	=145	=145	=145
2GG#	[2e	2B	8b
.	.	.	8e
.	.	.	8dd#
.	.	.	8ee
=146	=146	=146	=146
8AA	8e]	8A	8cc#
8r	8r	8r	8r
4C#	4A	8e	8gg#
.	.	8e	8aa
=147	=147	=147	=147
2D	[2a	8e	8gg#
.	.	8d	8ff#
.	.	8f#	8aa
.	.	8d	8ff#
=148	=148	=148	=148
4.AA	2a_	8d	8ff#
.	.	8c#	8ee
.	.	8cc#	8aa
8C#	.	8cc#	8ee
=149	=149	=149	=149
8E	8a]	8cc#	8ee
8E	4e	8b	8dd
8E	.	8a	8cc#
8E	8e 8d	8g#	8b
=150	=150	=150	=150
4AA	4e 4c#	4a	4a
4A	4r	4r	4r
=151	=151	=151	=151
2r	8A	4cc#	2r
.	8e	.	.
.	8B	8dd	.
.	8e	16cc#	.
.	.	16dd	.
=152	=152	=152	=152
2AA	8c#	8ee	2r
.	8e	8cc#	.
.	8c#	8b	.
.	8e	8a	.
=153	=153	=153	=153
2BB	8d	8a	2r
.	8e	8g#	.
.	8d	8f#	.
.	8e	8g#	.
=154	=154	=154	=154
4AA	8c#	4a	2r
.	8e	.	.
4r	8c#	8e	.
.	8e	8r	.
=155	=155	=155	=155
2r	8A	4cc#	4ccc#
.	8e	.	.
.	8B	8dd	8ddd
.	8e	16cc#	16ccc#
.	.	16dd	16ddd
=156	=156	=156	=156
2AA	8c#	8ee	8eee
.	8e	8cc#	8ccc#
.	8c#	8b	8bb
.	8e	8a	8aa
=157	=157	=157	=157
2BB	8d	8a	8aa
.	8e	8g#	8gg#
.	8d	8f#	8ff#
.	8e	8g#	8gg#
=158	=158	=158	=158
4AA	4c#	4a	4aa
4A	4r	4r	4r
=159	=159	=159	=159
2r	8c#	8.a	2r
.	8r	.	.
.	.	16g#	.
.	8e	8.b	.
.	8r	.	.
.	.	16a	.
=160	=160	=160	=160
2r	8a	8.cc#	2r
.	8r	.	.
.	.	16b	.
.	8b	8.dd	.
.	8r	.	.
.	.	16cc#	.
=161	=161	=161	=161
2r	8cc#	8.ee	2r
.	8r	.	.
.	.	16dd	.
.	8dd	8.ff#	.
.	8r	.	.
.	.	16ee	.
=162	=162	=162	=162
2BB	8r	2dd#	2ddd#
.	8a 8f#	.	.
.	8a 8f#	.	.
.	8a 8f#	.	.
=163	=163	=163	=163
2E	8r	2dd	2ddd
.	8g# 8B	.	.
.	8g# 8B	.	.
.	8g# 8B	.	.
=164	=164	=164	=164
4AA	8a	4cc#	4ccc#
.	8e	.	.
4D	8f#	8dd	8ddd
.	8d	16cc#	16ccc#
.	.	16b	16bb
=165	=165	=165	=165
4E	8c#	4a	4aa
.	8e	.	.
4EE	8d	4g#	4gg#
.	8B	.	.
=166	=166	=166	=166
8AA	8c#	8a	4aa
8A	8e 8c#	8r	.
8A	8e 8c#	8a	4r
8A	8e 8c#	8aa	.
=167	=167	=167	=167
8A	8f# 8d	8gg#	2r
8A	8f# 8d	8ff#	.
8A	8f# 8d	8aa	.
8A	8f# 8d	8ff#	.
=168	=168	=168	=168
8A	8e 8c#	8dd#	2r
8A	8e 8c#	8ee	.
8A	8e 8c#	8a	.
8A	8e 8c#	8aa	.
=169	=169	=169	=169
8A	8f# 8d	8gg#	2r
8A	8f# 8d	8ff#	.
8A	8f# 8d	8aa	.
8A	8f# 8d	8ff#	.
=170	=170	=170	=170
4A	4e 4c#	8dd#	4r
.	.	8ee	.
4r	4r	8ee	8eee
.	.	8ee	8eee
=171	=171	=171	=171
2GG#	2b 2e	8dd#	8ddd#
.	.	8ee	8eee
.	.	8dd#	8ddd#
.	.	8ee	8eee
=172	=172	=172	=172
8AA	8a	8cc#	8ccc#
8AA	8cc#	8ee	8r
8DD	8f#	8aa	8ddd
8DD	8dd	8ff#	8fff#
=173	=173	=173	=173
8EE	8cc#	8ee	8eee
8EE	8a	8cc#	8ccc#
8EE	8b	8dd	8ddd
8EE	8g#	8b	8bb
=174	=174	=174	=174
8AA	8a	8a	4aa
8A	8e 8c#	8r	.
8A	8e 8c#	8a	4r
8A	8e 8c#	8aa	.
=175	=175	=175	=175
8A	8f# 8d	8gg#	2r
8A	8f# 8d	8ff#	.
8A	8f# 8d	8aa	.
8A	8f# 8d	8ff#	.
=176	=176	=176	=176
8A	8e 8c#	8dd#	2r
8A	8e 8c#	8ee	.
8A	8e 8c#	8a	.
8A	8e 8c#	8aa	.
=177	=177	=177	=177
8A	8f# 8d	8gg#	2r
8A	8f# 8d	8ff#	.
8A	8f# 8d	8aa	.
8A	8f# 8d	8ff#	.
=178	=178	=178	=178
4A	4e 4c#	8dd#	4r
.	.	8ee	.
4r	4r	8ee	8eee
.	.	8ee	8eee
=179	=179	=179	=179
2GG#	2b 2e	8dd#	8ddd#
.	.	8ee	8eee
.	.	8dd#	8ddd#
.	.	8ee	8eee
=180	=180	=180	=180
8AA	8a	8cc#	8ccc#
8AA	8cc#	8ee	8r
8DD	8f#	8aa	8ddd
8DD	8dd	8ff#	8fff#
=181	=181	=181	=181
8EE	8cc#	8ee	8eee
8E	8a	8cc#	8ccc#
8E	8g#	8b	8bb
8E	8g#	8ee	8eee
=182	=182	=182	=182
4A	8b	8dd	8ddd
.	8a	8cc#	8ccc#
4r	4r	8ee	8eee
.	.	8ee	8eee
=183	=183	=183	=183
2GG#	2b 2e	8dd#	8ddd#
.	.	8ee	8eee
.	.	8dd#	8ddd#
.	.	8ee	8eee
=184	=184	=184	=184
8AA	8a	8cc#	8ccc#
8AA	8cc#	8ee	8r
8DD	8f#	8aa	8ddd
8DD	8dd	8ff#	8fff#
=185	=185	=185	=185
8EE	8cc#	8ee	8eee
8EE	8a	8cc#	8ccc#
8EE	8b	8dd	8ddd
8EE	8g#	8b	8bb
=186	=186	=186	=186
4AA	8a	8a	8aa
.	8c#	8e	8ccc#
8r	8d	8f#	8ddd
8E	8B	8g#	8bb
=187	=187	=187	=187
4A	8c#	8a	8aa
.	8c#	8e	8ccc#
8r	8d	8f#	8ddd
8E	8B	8g#	8bb
=188	=188	=188	=188
4AA	4c#	4a	4aa
4A	4a 4e 4c#	4aa 4cc# 4e	4ccc#
=189	=189	=189	=189
4AA	4e 4c#	4A	4aa
4r	4r	4r	4r
==	==	==	==
*-	*-	*-	*-
!!!RWG1: This file contains only pitch and duration data.
!!!RWG2: Transposing instruments are not transposed.
!!!RWG3: Spines may have incompatible meters.
!!!RWG4: Durations of rests and tied notes may be interpreted.
!!!RWG: Key is interpreted using the Humdrum key tool.
!!!AFT: stage1
!!!END: 1997/04/15
!!!KEY: 2150802400
!!!EMD: Converted from MuseData to Humdrum Dec 16, 2000, by Andreas Kornstaedt using muse2kern.
!!!EMD: Manual editing by Craig Sapp, Nov 2001
